X:1
T: Brinkie's Brae (adapted)
C: Alexander Windwick
P: Adapted by Bruce Shawyer
R:Reel
Q: 232
K:D
M:4/4
L:1/8
|:DE FD FG AF|A2d2 FED2|GA BG FA FD|E2e2 cBA2|
DE FD FG AF|A2d2 FED2|GA Bd cd ec|1d2d2 d2A2:|2d2d2 d2de|
|:f2ga gf ed|Bc dB AB cd|Bc dB A2f2|
|1gf ed e2de|f2ga gf ed|Bc dB AG FD|GA Bd cd ec|d2d2 d2de:|
|2gf ed ce cA|DE FD FG AF|A2d2 FED2|GA Bd cd ec|d2d2 d2||
